X:1
T:Title
%%score { 1 | 2 }
L:1/8
M:4/4
K:Ab
V:1 treble nm="Grand Piano"
V:2 bass 
V:1
 z4 z2[Q:1/4=88] [CE][CE] | [CA][CA][CA][DB] [Ec][Ee][Ec][EB] | [DFA]4 [A,DF]2 [A,FA][A,DA] | %3
 [CE][A,CE][A,EA]B ccdc | B6 [CA][DB] | [Ec][Ec][Ec][Ec] e2 cc | [FB][FA][FA][DF] [FA]3 [=EB] | %7
 c d3 c3 B |[M:3/4] [CEA]6 |[M:1/4] c2 |[M:4/4] e2 e4 [Ec]>[DB] | [CA]6 c2 | e2 e4 c2 | %13
[M:3/4] c2 B4 |[M:1/4] d2 |[M:4/4] [Ec]>[Ec] [Ec]4 [=EB]2 | [FA]>[FB] [FA]4 [A,DF]2 | %17
 [A,CE] [FGd]3 [EAc]3 [DEB] |[M:3/4] [CEA]6 |] %19
V:2
 z4 z2 [A,,A,][A,,A,] | [A,,E,][A,,E,][A,,E,][A,,E,] [A,,A,][A,,C][A,,A,][C,A,] | D,4 D,2 D,F, | %3
 A,A,,C,[E,G,E] [A,E][A,E][G,B,E][A,E] | [E,G,E]6 [A,,A,][A,,A,] | %5
 [A,,A,][A,,A,][A,,A,][A,,A,][K:treble] [A,CE]2 [A,E][A,_G] | [D,D][D,D][D,D][D,A,] [D,D]3 [D,A,] | %7
 [E,A,E] [E,B,E]3 [E,A,E]3 [E,DE] |[M:3/4] A,,6 |[M:1/4][K:treble] [A,E]2 | %10
[M:4/4] [A,CA]2 [A,CA]4[K:bass] [A,,A,]>[A,,A,] | [A,,A,]6[K:treble] [A,E]2 | %12
 [A,CA]2 [A,CA]4[K:bass] [A,E]2 |[M:3/4] [E,A,E]2 [E,G,E]4 |[M:1/4] [E,B,E]2 | %15
[M:4/4] [A,,A,]>[A,,A,] [A,,A,]4 [C,A,]2 | [D,D]>[D,D] [D,D]4 D,2 | E, E,3 E,3 E, |[M:3/4] A,,6 |] %19

